X: 16663
T: Hanter Dro
R: three-two
M: 3/2
K: Aminor
|:c2Bc A2AG A4|c2Bc d2e2 c2A2|c2Bc A2G2 A4|c2Bc d2c2 B4:|
|:A2ed e2ef dfe2|d2ed c2A2 d2B2|A2ed e2f2 dfe2|d2cd e2ed cBA2:|

